X: 31540
T: Paddy's Trip To Scotland
R: reel
M: 4/4
K: Dmajor
|:dAA2 BAGF|GABd cABc|d2ed cABc|dfed cABc|
dAA2 BAGF|GABd cABc|d2ed cABc|1 dfec d2dc:|2 dfec d2dB||
|:Adfd Adfd|Adfd dcBc|Acec Acec|Acec dcBc|
Adfd Adfd|Adfd dcBA|aA A2 dcBA|1 B/c/d ec d2dB:|2 B/c/d ec dABc||

